X: 20951
T: Joys Of Quebec
R: reel
M: 4/4
K: Amajor
ef|:"A"e2 cc c2 ef|e2 cc c2 de|f2 e2 d2 c2|"E7"d2 BB B2 de|d2 BB B2 de|
"E7"d2 BB B2 B/c/d|1 g2 f2 e2 d2|"A"e2 cc c2 ef:|2 e2 ^de =ff=gg|"A"a6 A/B/c||
"A"e4 "D"f4|"A"e6 AB|c4 "D"d4|"A"c6 cd|c2 A2 G2 A2|
[1 "E7"B6 B/c/d|g2 f2 e2 d2|"A"e2 cc c2 A/B/c:|2 "E7"B6 A/B/c|d2 e2 f2 g2|"A"aece A4||

